X:494
T: Shengchanle
N: C1913
O: China, Hebei Jixian
S: IV, 27]
R: Xiaodiao]
M: 2/4
L: 1/16
K: A
c3ef3e | c3BA4 | c2e2f3e | c3BA4
z2e2c2e2 | c3BA2F2 | c2BcG2F2 | E8
A2E4EF | A2F2A4 | c3ec2B2 | G2F2E4
e2e2c2cB | G2F2E4 | cecec2B2 | G2F2E4
z2e2c2e2 | cecBA4 | c2BcG2F2 | E3FG2F2 | E8

